X:1161
T:Evenesdalingen
C:anon.
O:Norway
A:Saltdal
R:Reinlender
Z:After Emil and \Oystein Ingvaldsen. Org. transcription: Rolf Monsen 
F:http://abc.musicaviva.com/tunes/norway/evenesdalingen/evenesdalingen-1.abc
%ABC transcription by Frank Nordberg - http://www.musicaviva.com
M:2/4
L:1/16
Q:1/4=100
K:D
ag|f2ef A2gf|e2ec A2gf|e2ed cABc|dAdf a2ag|\
f2ef A2gf|e2ec A2gf|e2ed cABc|.d2.d2 d2 :: a2|\
d2(3efe d2(3BcB|AFDF A2BA|GFEF G2(3BcB|AFDF A2A2|\
d2(3efe d2(3BcB|AFDF A2BA|GFEF GABc|.d2.d2 d2:|
W:
W:
W:  From Musica Viva - http://www.musicaviva.com
W:  the Internet center for free sheet music downloads.
